X:5
T:Banjo Tramp
M:4/4
L:1/8
S:Transcribed by Doug Mast.
S:Usually played in D?
R: reel
K:F
CD | "F" C2 A,2 C2 F2 | A6 BA | "B_"G2 F E2 C D2  | "F" C6 CD |
| "F" C2 A,2 C2 F2 | A6 BA | "G7" G2 FE D2 E2 | "C7" G6 CD |
| "F" C2 A,2 C2 F2 | A6 BA | "B_" G2 F E2 C D2 | "F" C6 DE |
| "F" FCA,B, "C" C2 DE | "F" FCA,B, "C" C2 CD | "C7" C2 E2 G2 E2 | "F" F6 G2 |
| "F" A2 c2 d2 c2 | A6 BA | "B_" G2 F E2 C D2  | "F" C6 G2 |
| "F" A2 c2 d2 c2 | A6 BA | "G7" G2 FE D2 E2 | "C7" G6 G2 |
| "F" A2 c2 d2 c2 | A6 BA | "B_" G2 F E2 C D2 | "F" C6 DE |
| "F" FCA,B, "C" C2 DE | "F" FCA,B, "C" C2 CD | "C" C2 E2 G2 E2 | "F" F6 ||

